assets/sonr-icons/currency-yen.svg

<svg xmlns="http://www.w3.org/2000/svg" width="24" height="24" fill="none" viewBox="0 0 24 24"><path fill="#000" d="M6.50506 3.23467C6.17072 2.82318 5.56611 2.76063 5.15462 3.09497C4.74313 3.4293 4.68058 4.03391 5.01492 4.4454L9.98306 10.56H6.23999C5.70979 10.56 5.27999 10.9898 5.27999 11.52C5.27999 12.0502 5.70979 12.48 6.23999 12.48H11.04V14.4H7.19999C6.66979 14.4 6.23999 14.8298 6.23999 15.36C6.23999 15.8902 6.66979 16.32 7.19999 16.32H11.04V20.16C11.04 20.6902 11.4698 21.12 12 21.12C12.5302 21.12 12.96 20.6902 12.96 20.16V16.32H16.8C17.3302 16.32 17.76 15.8902 17.76 15.36C17.76 14.8298 17.3302 14.4 16.8 14.4H12.96V12.48H17.76C18.2902 12.48 18.72 12.0502 18.72 11.52C18.72 10.9898 18.2902 10.56 17.76 10.56H14.0169L18.9851 4.4454C19.3194 4.03391 19.2568 3.4293 18.8454 3.09497C18.4339 2.76063 17.8293 2.82318 17.4949 3.23467L12 9.99766L6.50506 3.23467Z"/></svg>

<svg xmlns="http://www.w3.org/2000/svg" width="24" height="24" fill="none"><path fill="currentColor" d="M6.505 3.235a.96.96 0 0 0-1.49 1.21l4.968 6.115H6.24a.96.96 0 1 0 0 1.92h4.8v1.92H7.2a.96.96 0 1 0 0 1.92h3.84v3.84a.96.96 0 1 0 1.92 0v-3.84h3.84a.96.96 0 1 0 0-1.92h-3.84v-1.92h4.8a.96.96 0 1 0 0-1.92h-3.743l4.968-6.115a.96.96 0 0 0-1.49-1.21L12 9.998z"/></svg>
